src/symbolic/places/mail-mailbox-symbolic.svg

<?xml version="1.0" encoding="UTF-8" standalone="no"?>
<svg
   xmlns:dc="http://purl.org/dc/elements/1.1/"
   xmlns:cc="http://creativecommons.org/ns#"
   xmlns:rdf="http://www.w3.org/1999/02/22-rdf-syntax-ns#"
   xmlns:svg="http://www.w3.org/2000/svg"
   xmlns="http://www.w3.org/2000/svg"
   xmlns:sodipodi="http://sodipodi.sourceforge.net/DTD/sodipodi-0.dtd"
   xmlns:inkscape="http://www.inkscape.org/namespaces/inkscape"
   height="16"
   width="16"
   version="1.1"
   id="svg6"
   sodipodi:docname="mail-mailbox-symbolic.svg"
   inkscape:version="0.92.4 (5da689c313, 2019-01-14)">
  <metadata
     id="metadata12">
    <rdf:RDF>
      <cc:Work
         rdf:about="">
        <dc:format>image/svg+xml</dc:format>
        <dc:type
           rdf:resource="http://purl.org/dc/dcmitype/StillImage" />
      </cc:Work>
    </rdf:RDF>
  </metadata>
  <defs
     id="defs10" />
  <sodipodi:namedview
     pagecolor="#ffffff"
     bordercolor="#666666"
     borderopacity="1"
     objecttolerance="10"
     gridtolerance="10"
     guidetolerance="10"
     inkscape:pageopacity="0"
     inkscape:pageshadow="2"
     inkscape:window-width="1366"
     inkscape:window-height="711"
     id="namedview8"
     showgrid="true"
     inkscape:zoom="10.429825"
     inkscape:cx="-10.335829"
     inkscape:cy="1.3878515"
     inkscape:window-x="0"
     inkscape:window-y="27"
     inkscape:window-maximized="1"
     inkscape:current-layer="svg6">
    <inkscape:grid
       type="xygrid"
       id="grid828" />
  </sodipodi:namedview>
  <path
     style="opacity:1;fill:#666666;fill-opacity:1;fill-rule:evenodd;stroke:none;stroke-width:2;stroke-linecap:square;stroke-linejoin:miter;stroke-miterlimit:4;stroke-dasharray:none;stroke-opacity:1;paint-order:fill markers stroke"
     d="M 2 2 C 1.446 2 1 2.446 1 3 L 1 14 C 1 14.554 1.446 15 2 15 L 14 15 C 14.554 15 15 14.554 15 14 L 15 3 C 15 2.446 14.554 2 14 2 L 12 2 L 6.2871094 2 L 5.9160156 2 L 4 2 L 2 2 z M 2 3 L 4 3 L 5.1074219 3 L 7.0957031 3 L 12 3 L 14 3 L 14 10 L 10 10 C 10 11.104569 9.1045696 12 8 12 C 6.8954305 12 6 11.104569 6 10 L 2 10 L 2 3 z M 2 11 L 3 11 L 5.1738281 11 C 5.5973349 12.197859 6.7294788 12.999045 8 13 C 9.2698043 12.998218 10.400952 12.197185 10.824219 11 L 13 11 L 14 11 L 14 12 L 14 14 L 13 14 L 3 14 L 2 14 L 2 12 L 2 11 z "
     id="rect824" />
</svg>

<svg xmlns="http://www.w3.org/2000/svg" height="16" width="16"><path d="M2 2c-.554 0-1 .446-1 1v11c0 .554.446 1 1 1h12c.554 0 1-.446 1-1V3c0-.554-.446-1-1-1H2zm0 1h12v7h-4a2 2 0 0 1-4 0H2V3zm0 8h3.174A3 3 0 0 0 8 13a3 3 0 0 0 2.824-2H14v3H2v-3z" fill="#5d656b" fill-rule="evenodd" paint-order="fill markers stroke"/></svg>
